!!!!SEGMENT: pl-wtm--r-2039-iii--002_smietanski-emil-wladyslaw--mazurek-a-dur.krn
!!!cenid: 18xx:2026
!!!COM: Śmietański, Emil Władysław
!!!COM-rismID: pe50041781
!!!CDT: 1845-1886
!!!CNT: Polish
!!!OTL: Mazurek A-dur
!!!PDT:
!!!AGN: Secular; Mazurka
!!!SMS-siglum: PL-Wtm
!!!SMS-shelfmark: R 2039-III
!!!SMS-shelfwork: 002 W
!!!SMS-variant:
!!!SMS-altvar:
!!!NIFC-rismSourceID: 1001111532
!!!NIFC-rismChildID: 1001111532
!!!NIFC-islandoraID:
!!!URL-pdf-islandora:
!!!URL-scan:
!!!ONB-nifc: UWAGA: skan 0007
!!!AIN: 1 empty 1 forte
!!!key:
**kern	**kern	**dynam
*part2	*part1	*part1
*staff2	*staff1	*
*Iempty	*Iforte	*
*	*I"Fortepian	*
*	*I'pf	*
*>[A,B,B1,B,B2,C,A,D]	*>[A,B,B1,B,B2,C,A,D]	*>[A,B,B1,B,B2,C,A,D]
*>A	*>A	*>A
*clefF4	*clefG2	*
*k[f#c#g#]	*k[f#c#g#]	*
*A:	*A:	*
*M3/4	*M3/4	*
*all\right	*all\right	*
=1	=1	=1
!	!	!LO:DY:t=p.
4AA\	8cc#L 8a\	p
.	8dd#XJ 8b#X\	.
4a 4e 4c#\	4ee 4cc#\	.
.	16qqff#/	.
4a 4e 4c#\	8eeL 8cc#\	.
.	8dd#J 8b#\	.
=2	=2	=2
4A\	8cc#L 8a\	.
.	8dd#XJ 8b#X\	.
4e\	4cc# 4a\	.
4E\	4b# 4g#\	.
=3	=3	=3
4C#\	8aL 8f#\	.
.	8b#XJ 8g#\	.
4A\	4a 4f#\	.
4AA\	4a 4d#X\	.
=4	=4	=4
*	*2\right	*
4r	2.a 2.e\	.
4A 4C#\	.	.
4AAA\	.	.
=5	=5	=5
4AA/	8cc#L 8a\	.
.	8dd#XJ 8b#X\	.
4a 4c#\	4ee 4cc#\	.
.	16qqff#/	.
4a 4B#X\	8eeL 8cc#\	.
.	8dd#J 8b#\	.
=6	=6	=6
4c#\	8eeL 8cc#\	.
.	8aa\J	.
4a\	4ee 4cc#\	.
4A\	8eeL 8cc#\	.
.	8dd#XJ 8b#X\	.
=7	=7	=7
4E\	16cc#LL 16a\	.
.	16dd#X 16b#X\	.
.	16ee 16cc#\	.
.	16dd#JJ 16b#\	.
4c#\	4cc# 4a\	.
4E\	4b# 4g#\	.
=8	=8	=8
*	*Xtuplet	*
4C#\	12aL 12f#\	.
.	12b#X\	.
.	12aJ 12f#\	.
4A 4C#\	2a 2e\	.
4AAA\	.	.
!!LO:LB:g=original
=9	=9	=9
!LO:TX:t=P:problem=skreślone dźwięki w t. 9	!	!
8cn\L	8aL 8f#\	.
8D#X\J	8b#X\J	.
4AA\	4a 4f#\	.
4c\	8aL 8e\	.
.	8d#X\J	.
=10	=10	=10
4c# 4E\	8aL 8f# 8e\	.
.	8cc#\J	.
4AA\	4ee 4cc#\	.
4c# 4E\	8eeL 8cc#\	.
.	8dd#XJ 8b#X\	.
=11	=11	=11
4c# 4F#\	8cc#L 8a\	.
.	8dd#XJ 8b#X\	.
4AA\	4cc# 4a\	.
4cn 4F#\	4b# 4g#\	.
=12	=12	=12
4c#X 4E\	12aL 12f#\	.
.	12b#X\	.
.	12aJ 12f#\	.
4E\	2a 2e\	.
4AAA\	.	.
=13	=13	=13
!LO:TX:t=P:problem=skreślony dźwięk	!	!
4cn 4D\	8aL 8f#\	.
.	8b#X\J	.
4AA\	4a 4f#\	.
4c 4F#\	8aL 8e\	.
.	8d#X\J	.
=14	=14	=14
4c#X 4E\	8aL 8e\	.
.	8cc#\J	.
4AA\	8ee\L	.
.	8bb\J	.
4c# 4E\	8eeL 8cc#\	.
.	8dd#XJ 8b#X\	.
=15	=15	=15
4c# 4F#\	16cc#LL 16a\	.
.	16dd#X 16b#X\	.
.	16aa 16cc#\	.
.	16dd#JJ 16b#\	.
4AA\	4cc# 4a\	.
4cn 4F#\	4a 4d#X\	.
=16	=16	=16
4r	2.a 2.e\	.
4c# 4E\	.	.
4AAA\	.	.
=17	=17	=17
4r	2.a 2.e\	.
4c# 4E\	.	.
4AAA\	.	.
=18	=18	=18
!	!LO:TX:b:t=[segno]	!
4r	2.a 2.e\	.
4c# 4E\	.	.
4AAA\	.	.
!!LO:LB:g=original
=19!|:	=19!|:	=19!|:
*>B	*>B	*>B
*k[]	*k[]	*
!	!LO:TX:b:i:t=passionato.	!
.	32qqa\	.
4AA\	8aaL 8a\	.
.	8aa\J	.
4f 4d 4A\	4gg#X\	.
4f 4d 4A\	4ff\	.
=20	=20	=20
.	32qqff/	.
4AA\	8.eeL 8.a\	.
.	16dd#X\Jk	.
*	*2\left	*
4e 4c 4A\	2ee 2a\	.
4e 4c 4A\	.	.
=21	=21	=21
4EE\	12a\L	.
.	12b\	.
.	12cc\J	.
4d 4G#X 4F\	4b\	.
4d 4G# 4F\	4g#X\	.
=22	=22	=22
4AA\	8a\L	.
.	8cc\J	.
*	*2\right	*
2c 2E\	2ee\	.
=23	=23	=23
4AA\	8aa\L	.
.	8gg#X\	.
.	32qqbb/	.
4f 4d 4A\	8aa\	.
.	8gg#\	.
4f 4d 4A\	8aa\	.
.	8ff\J	.
=24	=24	=24
.	32qqff/	.
4AA\	8eeL 8a\	.
.	8dd#X\J	.
4e 4c 4A\	2ee 2a\	.
4e 4c 4A\	.	.
=25	=25	=25
4EE\	8a\L	.
.	8b\J	.
4c 4A 4E\	8cc\L	.
.	16qqdd/	.
.	8cc\J	.
4d 4G#X 4F\	8b\L	.
.	8g#X\J	.
=26	=26	=26
4c 4E 4AA\	2.a\	.
4AAA/	.	.
4AA\	.	.
!!LO:LB:g=original
=27	=27	=27
!	!	!LO:DY:t=p.
8B-XL 8D/	4r	p
8d/J	.	.
4d/	4b-X 4f/	.
16qqe/	.	.
8d/L	4b- 4f/	.
8c#X/J	.	.
=28	=28	=28
8d/L	4r	.
8f/J	.	.
4d/	4b-X 4f/	.
4c#X/	4b- 4f/	.
=29	=29	=29
8B-X/L	4r	.
8d/J	.	.
4B-/	4b-X 4f 4d/	.
4F/	4b- 4f 4d/	.
=30	=30	=30
*^	*	*
2.B-X/	4ryy	4r	.
.	4F 4BB-X\	4ff 4b-X 4d\	.
.	4BBB-X\	4ff 4b- 4d\	.
*v	*v	*	*
=31	=31	=31
8B-XL 8D/	4r	.
8d/J	.	.
4d/	4b-X 4f\	.
16qqe 16qqc\	.	.
8d/L	4b- 4f\	.
8c#X/J	.	.
=32	=32	=32
16d/LL	4r	.
16f/	.	.
16b-X/	.	.
16f/JJ	.	.
4d/	4b-X 4f\	.
4c#X/	4b- 4f\	.
=33	=33	=33
!LO:TX:t=I	!	!
*>B1	*>B1	*>B1
8B-X/L	4r	.
8c#X/J	.	.
4d/	4b-X 4f 4d\	.
8e/L	4b- 4f 4d\	.
8c#/J	.	.
=34	=34	=34
*^	*	*
2.d/	4ryy	4r	.
.	4BB-X/	4ff 4b-X 4d\	.
!	!	!LO:TX:t=P:problem=skreślony takt	!
.	4BBB-X\	4ff 4b- 4d\	.
*v	*v	*	*
!!LO:LB:g=original
=35:|!	=35:|!	=35:|!
!LO:TX:t=II	!	!
*>B2	*>B2	*>B2
8B-X/L	4r	.
8c/J	.	.
4dS/	4b 4f/	.
8d/L	4b-X 4f/	.
8c#X/J	.	.
=36	=36	=36
*^	*	*
2.d/	4ryy	4r	.
!	!LO:SIC:v:n=2:s=4BB-	!LO:SIC:v:n=2:s=4b-	!
.	4F 4BB\	4ff 4b 4d\	.
!	!	!LO:SIC:v:n=2:s=4b-	!
.	4BBB-X\	4ff 4b 4d\	.
*v	*v	*	*
=37||	=37||	=37||
*>C	*>C	*>C
!	!LO:TX:b:i:t=passionato.	!
.	16qqa\	.
4AA\	8aa\L	.
.	8aa\J	.
4f 4d 4A\	4gg#X\	.
4f 4d 4A\	4ff\	.
=38	=38	=38
.	16qqff/	.
4AA\	8.eeL 8.a\	.
.	16dd#X\Jk	.
4e 4c 4A\	2ee 2a\	.
4e 4c 4A\	.	.
=39	=39	=39
4EE\	12a\L	.
.	12b\	.
.	12cc\J	.
4d 4G#X 4F\	4b\	.
4d 4G# 4E\	4g#X\	.
=40	=40	=40
4AA\	8.a\L	.
.	16cc\Jk	.
*2\right	*	*
2c 2E\	2ee\	.
=41	=41	=41
4AA\	8aaL 8a\	.
.	8gg#X\	.
.	8qqbb/	.
4f 4d 4A\	8aa\	.
.	8gg#\	.
4f 4d 4A\	8aa\	.
.	8ff\J	.
=42	=42	=42
.	16qqff/	.
4AA\	8.eeL 8.a\	.
.	16dd#X\Jk	.
4e 4c 4A\	2ee 2a\	.
4e 4c 4A\	.	.
!!LO:LB:g=original
=43	=43	=43
4EE\	8a\L	.
.	8b\J	.
4c 4A 4E\	8cc\L	.
.	16qqdd/	.
.	8cc\J	.
4d 4G#X 4F\	8b\L	.
.	8g#X\J	.
=44	=44	=44
4c 4E 4AA\	2.a\	.
4AA 4AAA\	.	.
4E 4EE\	.	.
=45	=45	=45
4c 4E\	2.a\	.
4AA 4AAA\	.	.
4E 4EE\	.	.
=46	=46	=46
4c 4E\	2.a\	.
4AA 4AAA\	.	.
!	!LO:TX:b:t=Da capo e poi al [segno]	!
4E 4EE\	.	.
=47||	=47||	=47||
*>D	*>D	*>D
*k[f#c#g#]	*k[f#c#g#]	*
!	!	!LO:DY:t=ppp.
8B-XL 8D\	4r	ppp
8d\J	.	.
4d\	4b-X 4f#\	.
16qqe/	.	.
8d\L	4b- 4f#\	.
8c#X\J	.	.
=48	=48	=48
8d\L	4r	.
8f#\J	.	.
4d\	4b 4f#\	.
4c#X\	4b 4f#\	.
=49	=49	=49
8B-X\L	4r	.
8d\J	.	.
4B-\	4ff# 4b 4d\	.
4F#\	4ff# 4b 4d\	.
!!LO:LB:g=original
=50	=50	=50
*^	*	*
!LO:N:vis=2.	!	!	!
2.A\	4rEE	4r	.
.	4E 4AA\	4ee 4a 4c#X/	.
.	4AAA\	4ee 4a 4c#/	.
*v	*v	*	*
=51	=51	=51
8B-XL 8D\	4r	.
8d\J	.	.
4d\	4b-X 4f#\	.
16qqe/	.	.
8d\L	4b- 4f#\	.
8c#X\J	.	.
=52	=52	=52
8d\L	4r	.
8f#\J	.	.
4d\	4b-X 4f#\	.
4c#X\	4b- 4f#\	.
=53	=53	=53
8B-X\L	4r	.
8d\J	.	.
*	*tremolo	*
4B-\	8ff#L 8b 8d\	.
.	8ff#J 8b 8d\	.
*	*Xtremolo	*
4F#\	4ff# 4b 4d\	.
=54	=54	=54
*^	*	*
2.A\	4rEE	4r	.
.	4E 4AA\	4ee 4a 4c#X\	.
.	4AAA\	4ee 4a 4c#\	.
=55	=55	=55	=55
2.A\	4rEE	4r	.
!	!	!LO:TX:b:i:t=estinto	!
.	4E 4BB\	4ee 4a 4c#X\	.
.	4AAA\	4ee 4a 4c#\	.
=56	=56	=56	=56
!LO:N:vis=2	!	!	!
2.A\	4rEE	4r	.
.	4E 4AA\	4ee 4a 4c#X\	.
.	4AAA\	4ee 4a 4c#\	.
*v	*v	*	*
=57	=57	=57
!	!	!LO:DY:t=ff.
16c#XKL 16E 16AA\	16eeeKL 16aa 16ee\	ff
[8.c#J [8.E [8.AA\	[8.aaJ [8.ee [8.a\	.
2c#] 2E] 2AA\]	2aa] 2ee] 2a\]	.
==	==	==
*-	*-	*-
!!!system-decoration: {(s1,s2)}
!!!ENC: Andrzej Kubiczek
!!!END: 2021-05-25
!!!ENC: Krzysztof Stępień
!!!END: 2021-05-08
!!!YEC: Copyright 2022 Narodowy Instytut Fryderyka Chopina (https://polishscores.org)
!!!YEM: License CC-BY-4.0 (https://creativecommons.org/licenses/by/4.0)
